X:13
T:Il Crociato
B:Goulding and d'Almaine's Twenty-four Country Dances For the year 1826.
L:1/8
M:2/4
O:England
Z:Richard Robinson <URL:http://www.qualmograph.org.uk/contact.html>
%%Dancenotes:Hands four around lead down the middle & allemande
%%UploadedFrom:Goulding_and_dAlmaine.abc
F:http://richardrobinson.tunebook.org.uk/Tune/3557
K:F
c |\
.d.a.g.f | .e.g.c.c | .B.d.c.B | AcFc |\
dB ec    | fdge     | afdg     | egc ||
A |\
GA/B/ cd/e/ | faf A | GA/B/ cd/e/ | fcde |\
fagf | egcA | Bdce | fFF |]

